X:1
T:Title
%%score { ( 1 3 ) | ( 2 4 ) }
L:1/8
M:4/4
K:Eb
V:1 treble nm="Grand Piano"
V:3 treble 
V:2 bass 
V:4 bass 
V:1
 z4 z2[Q:1/4=100] E>F | G>G G>[B,FA] [EGB]2 [B,EG]>[B,DF] | %2
 [B,E]>[B,E] [B,E]>[B,DF] [B,EG]2 [B,FA]>[B,EG] | [DF]>[DF] [DF]>[EG] [FA]>[=EG] [FA]>[DB] | %4
 [EG]6 [EG]>[FA] | [GB]>[GB] [_G=A]>[=GB] [Ge]2 [Be]>[Bd] | [Bd]>c e>c [EGB]2 [B,FB]>[B,FA] | %7
 [B,EG]>[B,EG] [EGB]>[B,EG] [A,DF]>[G,E] [A,DF]>[B,G] |[M:3/4] [G,B,E]6 |[M:1/4] G>A | %10
[M:4/4] [EGB]2 [EGB]2 [EGB]>[B,FA] [B,EG]2 | [EAc]2 [EAc]2 [Ac]>[GB] [GB]2 | %12
 [Ge]2 [GB]2 [Ac]2 [GB]>[B,EG] |[M:9/8] F2- [CEF]- [CEF-] [B,DF]2- [B,DF][B,FB]>[B,FA] | %14
[M:4/4] [B,EG]>[B,EG] [B,EG]>[B,FA] [GB]2 [_G=A]>[=GB] | [Ge]>[Ge] [Be]>[Bd] [Ac]3 [Ec] | %16
 [EB]2 [EB]2 [DB]>[DB] [A,DF]>[B,DG] |[M:3/4][K:bass] [E,E]2- [E,-CE-]2 [E,B,E]2 |] %18
V:2
 z4 z2 [E,G,]>[E,A,E] | [E,B,E]>[E,B,E] [E,B,E]>E, E,2 E,>F, | G,>G, G,,>B,, E,2 D,>E, | %3
 [B,,B,]>[B,,B,] [B,,B,]>[B,,B,] [B,,B,]>[B,,B,] [B,,B,]>[B,,B,] | [E,B,]6 [E,B,]>[E,B,] | %5
 [E,E]>[E,E] [E,E]>[E,E] [E,B,]2 [G,B,]>[K:treble][G,E] | %6
 [A,E]>[A,EA] [A,CA]>[A,EA][K:bass] E,2 D,>D, | E,>E, E,>E, B,,>B,, B,,>B,, |[M:3/4] E,6 | %9
[M:1/4][K:treble] E>F |[M:4/4][K:bass] E,2 E,2 E,>E, E,2 | A,,2 A,,2 [E,E]>[E,E] [E,E]2 | %12
 [E,B,]2 [E,E]2 [E,E]2 [E,E]>E, |[M:9/8] B,,2 =A,,- A,, B,,2- B,,D,>D, | %14
[M:4/4] E,>E, E,>E, [E,E]2 [E,E]>[E,E] | [E,B,]>[E,B,] [G,B,]>[G,E] [A,E]3 [A,,A,] | %16
 [B,,G,]2 [B,,G,]2 [B,,F,]>[B,,F,] B,,>B,, |[M:3/4] z2 A,2 G,2 |] %18
V:3
 x8 | x8 | x8 | x8 | x8 | x8 | x8 | x8 |[M:3/4] x6 |[M:1/4] x2 |[M:4/4] x8 | x8 | x8 | %13
[M:9/8] .[B,D]3 z3 z3 |[M:4/4] x8 | x8 | x8 |[M:3/4][K:bass] [G,B,]2 z2 z2 |] %18
V:4
 x8 | x8 | x8 | x8 | x8 | x15/2[K:treble] x/ | x4[K:bass] x4 | x8 |[M:3/4] x6 | %9
[M:1/4][K:treble] x2 |[M:4/4][K:bass] x8 | x8 | x8 |[M:9/8] x9 |[M:4/4] x8 | x8 | x8 | %17
[M:3/4] E,,6 |] %18

